packages/vapor/resources/icons/svg/card-type-BarChart-vertical.svg

<svg enable-background="new 0 0 32 32" viewBox="0 0 32 32" xmlns="http://www.w3.org/2000/svg"><g fill="#f38130"><path d="m24.996 24.975h-17.993c-.554 0-1-.449-1-1v-.992c0-.554.449-1 1-1h17.994c.554 0 1 .449 1 1v.992c-.001.554-.45 1-1 1"/><path d="m19 20.999 4 .001v-7h-4v7m2.999-5.988v4.981h-1.991v-4.981z"/><path d="m9 20.999 4 .001v-10h-4v10m2.999-8.988v7.981h-1.991v-7.981z"/><path d="m14 20.999 4 .001v-14l-4-.001zm2.999-12.988v11.981h-1.991v-11.981z"/><path d="m30.006 0h-28.012c-1.101 0-1.994.893-1.994 1.994v28.012c0 1.101.893 1.994 1.994 1.994h28.012c1.101 0 1.994-.893 1.994-1.994v-28.012c0-1.101-.893-1.994-1.994-1.994zm-.006 30h-28v-28h28z"/></g></svg>

<svg xmlns="http://www.w3.org/2000/svg" viewBox="0 0 32 32" enable-background="new 0 0 32 32">
  <g fill="#f38130">
    <path d="m24.996 24.975h-17.993c-.554 0-1-.449-1-1v-.992c0-.554.449-1 1-1h17.994c.554 0 1 .449 1 1v.992c-.001.554-.45 1-1 1"/>
    <path d="m19 20.999l4 .001v-7h-4v7m2.999-5.988v4.981h-1.991v-4.981h1.991"/>
    <path d="m9 20.999l4 .001v-10h-4v10m2.999-8.988v7.981h-1.991v-7.981h1.991"/>
    <path d="m14 20.999l4 .001v-14l-4-.001v14m2.999-12.988v11.981h-1.991v-11.981h1.991"/>
    <path d="M30.006,0H1.994C0.893,0,0,0.893,0,1.994v28.012C0,31.107,0.893,32,1.994,32h28.012
		C31.107,32,32,31.107,32,30.006V1.994C32,0.893,31.107,0,30.006,0z M30,30H2V2h28V30z"/>
  </g>
</svg>
